**kern	**kern	**dynam
*part1	*part1	*part1
*staff2	*staff1	*
*I"Piano	*	*
*clefF4	*clefG2	*
*k[b-e-a-d-]	*k[b-e-a-d-]	*
=1	=1	=1
*	*^	*
4FF	4F<	4f	.
*	*v	*v	*
4BBBn	8BnL<	.
.	8BBnJ<	.
*	*^	*
4AA-	4A-<	4a-	.
*	*v	*v	*
=	=	=
8CCL	4r	f
8CJ	.	.
4r	4A-' 4e- 4a-	.
4C 4G 4B-	4en' 4g 4cc	.
=	=	=
*	*^	*
8DD-L	4r	2r<yy	.
8D-J	.	.	.
4r	4f' 4a- 4ff	.	.
4F 4c	4f' 4an 4cc	4e-	.
*	*v	*v	*
=	=	=
4BB-'	8b-L	.
.	8B-J	.
4D-'	4d-' 4dd-	.
4F'	8ffL	.
.	8fJ	.
=	=	=
4B-'	4b-' 4bb-	.
4d-'	4dd-' 4ddd-	.
4f'>	4ff' 4fff	.
=	=	=
4c'> 4f> 4an>	4aan' 4fff 4aaan	f
4r	4r	.
4r	4r	.
=	=	=
4r	4r	.
4r	4r	.
4C' 4F 4An 4c	4an' 4ff 4aan	.
=	=	=
2.AAn 2.C 2.F 2.An	2.cc 2.ff 2.ccc	.
=	=	=
*-	*-	*-
!!!system-decoration: {(s1,s2)}
!!!RDF**kern: > = above
!!!RDF**kern: < = below
